X: 35161
T: Ronnie Cooper
R: reel
M: 4/4
K: Dmajor
|:dDDG FDFA|gfed B/c/d ed|BEEE gfed|cdec AGFE|
D2FA B3d|g2ed B/c/d eg|fggf gfed|1 ceag fdd2:|2 ceag fdfg||
|:afdf a3b|gece g3e|fdAd fgaf|eAce a3g|
fdec dAFA|BG3 EGFE|FDFA GBed|1 cAGE EDfg:|2 cAGE EDD2||

